src/16/panel/mic-ready.svg

<svg xmlns="http://www.w3.org/2000/svg" width="16" height="16"><defs><style id="current-color-scheme" type="text/css"></style></defs><path d="M8 0C6.338 0 5 1.338 5 3v5.002A2.992 2.992 0 0 0 8 11c1.662 0 3-1.336 3-2.998V3c0-1.662-1.338-3-3-3zM2 7v.998C2 10.965 4 14 7 14v2h2v-2c3 0 5-3.036 5-6.002V7h-2v.998A3.97 3.97 0 0 1 8 12a3.97 3.97 0 0 1-4-4.002V7z" opacity=".3" fill="currentColor" color="#bebebe"/></svg>

<svg xmlns="http://www.w3.org/2000/svg" width="16" height="16" version="1.1">
 <defs>
  <style id="current-color-scheme" type="text/css">
   .ColorScheme-Text { color:#bebebe; } .ColorScheme-Highlight { color:#5294e2; }
  </style>
 </defs>
 <path style="opacity:0.3;fill:currentColor" class="ColorScheme-Text" d="M 8,0 C 6.3379,0 5,1.3381 5,3 V 8.002 C 5,9.664 6.3379,11 8,11 9.662,11 11,9.664 11,8.002 V 3 C 11,1.3381 9.662,0 8,0 Z M 2,7 V 7.998 C 2,10.965 4,14 7,14 V 16 H 9 V 14 C 12,14 14,10.964 14,7.998 V 7 H 12 V 7.998 C 12,10.232 10.233,12 8,12 5.7666,12 4,10.232 4,7.998 V 7 Z"/>
</svg>
